data/chains/V2/fantom/fantom.branded.svg

<svg width="24" height="24" viewBox="0 0 24 24" fill="none" xmlns="http://www.w3.org/2000/svg">
<path fill-rule="evenodd" clip-rule="evenodd" d="M11.9661 2L6.00098 5.38448V18.514L11.9661 22L18.0012 18.514V5.38448L11.9661 2ZM12.0011 2.99983L7.49897 5.69947L11.9988 8.32446L16.4986 5.69947L12.0011 2.99983ZM6.99964 6.4998V10.9996L11.0001 8.75962L6.99964 6.4998ZM12.5004 9.74892V14.2499L16.4997 12.0099L12.5004 9.74892ZM17.0002 6.4998V10.9996L12.9998 8.75962L17.0002 6.4998ZM11.4994 9.74775V14.2487L7.49897 12.0087L11.4994 9.74775ZM6.99964 12.7811V18.0007L12.0011 20.999L17.0014 17.9995V12.7787L11.9999 15.4994L6.99964 12.7811Z" fill="#26B6EA"/>
<path d="M3.5 19.5949V16.4997H4.49983V19.1002L6.99997 20.3894V21.5L3.5 19.5949ZM20.4994 4.40496V7.50011H19.4996V4.89963L16.9994 3.61164V2.50098L20.4994 4.40496Z" fill="#26B6EA"/>
</svg>

<svg xmlns="http://www.w3.org/2000/svg" width="24" height="24" fill="none" viewBox="0 0 24 24">
    <path fill="#26B6EA" fill-rule="evenodd" d="M11.966 2 6.001 5.384v13.13L11.966 22l6.035-3.486V5.384zm.035 1L7.5 5.7 12 8.324l4.5-2.625zM7 6.5V11l4-2.24zm5.5 3.249v4.5l4-2.24zm4.5-3.25V11l-4-2.24zm-5.5 3.249v4.5l-4.001-2.24zM7 12.78V18l5 2.999 5-3v-5.22l-5 2.72z" clip-rule="evenodd"/>
    <path fill="#26B6EA" d="M3.5 19.595V16.5h1v2.6L7 20.39v1.11zm17-15.19V7.5h-1V4.9L17 3.612V2.5z"/>
</svg>
